polaris-icons/icons/newicons/ConfettiMajor.svg

<svg width="20" height="20" viewBox="0 0 20 20" fill="none" xmlns="http://www.w3.org/2000/svg">
<path d="M16.5 3.25C16.5 2.83579 16.1642 2.5 15.75 2.5C15.3358 2.5 15 2.83579 15 3.25V3.5H14.75C14.3358 3.5 14 3.83579 14 4.25C14 4.66421 14.3358 5 14.75 5H15V5.25C15 5.66421 15.3358 6 15.75 6C16.1642 6 16.5 5.66421 16.5 5.25V5H16.75C17.1642 5 17.5 4.66421 17.5 4.25C17.5 3.83579 17.1642 3.5 16.75 3.5H16.5V3.25Z" fill="black"/>
<path fill-rule="evenodd" clip-rule="evenodd" d="M7.80637 8.24563C6.93965 7.3789 5.47344 7.64872 4.97204 8.76722L2.87941 13.4354C2.41264 14.4766 2.6374 15.698 3.44427 16.5048L3.49505 16.5556C4.30192 17.3625 5.52325 17.5872 6.5645 17.1205L11.2327 15.0279C12.3512 14.5265 12.621 13.0602 11.7543 12.1935L7.80637 8.24563ZM6.34081 9.3808C6.41244 9.22102 6.62189 9.18247 6.74571 9.30629L10.6936 13.2542C10.8174 13.378 10.7789 13.5875 10.6191 13.6591L5.95091 15.7517C5.47762 15.9639 4.92247 15.8617 4.55571 15.495L4.50493 15.4442C4.13817 15.0774 4.03601 14.5223 4.24818 14.049L6.34081 9.3808Z" fill="black"/>
<path d="M5.75 2.5C6.16421 2.5 6.5 2.83579 6.5 3.25V3.5H6.75C7.16421 3.5 7.5 3.83579 7.5 4.25C7.5 4.66421 7.16421 5 6.75 5H6.5V5.25C6.5 5.66421 6.16421 6 5.75 6C5.33579 6 5 5.66421 5 5.25V5H4.75C4.33579 5 4 4.66421 4 4.25C4 3.83579 4.33579 3.5 4.75 3.5H5V3.25C5 2.83579 5.33579 2.5 5.75 2.5Z" fill="black"/>
<path d="M16.5 13.25C16.5 12.8358 16.1642 12.5 15.75 12.5C15.3358 12.5 15 12.8358 15 13.25V13.5H14.75C14.3358 13.5 14 13.8358 14 14.25C14 14.6642 14.3358 15 14.75 15H15V15.25C15 15.6642 15.3358 16 15.75 16C16.1642 16 16.5 15.6642 16.5 15.25V15H16.75C17.1642 15 17.5 14.6642 17.5 14.25C17.5 13.8358 17.1642 13.5 16.75 13.5H16.5V13.25Z" fill="black"/>
<path d="M13.5303 7.53033C13.8232 7.23744 13.8232 6.76256 13.5303 6.46967C13.2374 6.17678 12.7626 6.17678 12.4697 6.46967L10.9697 7.96967C10.6768 8.26256 10.6768 8.73744 10.9697 9.03033C11.2626 9.32322 11.7374 9.32322 12.0303 9.03033L13.5303 7.53033Z" fill="black"/>
<path d="M10.0287 3.03237C10.425 3.15279 10.6487 3.57169 10.5283 3.96802L9.82559 6.28055C9.70517 6.67687 9.28626 6.90053 8.88994 6.7801C8.49362 6.65968 8.26996 6.24078 8.39038 5.84445L9.09305 3.53193C9.21347 3.1356 9.63238 2.91194 10.0287 3.03237Z" fill="black"/>
<path d="M16.5782 11.0316C16.9764 10.9173 17.2065 10.5019 17.0923 10.1038C16.978 9.70565 16.5626 9.47551 16.1645 9.58977L13.8217 10.2621C13.4235 10.3763 13.1934 10.7917 13.3076 11.1898C13.4219 11.588 13.8373 11.8181 14.2354 11.7039L16.5782 11.0316Z" fill="black"/>
</svg>

<svg viewBox="0 0 20 20" fill="none" xmlns="http://www.w3.org/2000/svg"><path d="M16.5 3.25a.75.75 0 0 0-1.5 0v.25h-.25a.75.75 0 0 0 0 1.5h.25v.25a.75.75 0 0 0 1.5 0v-.25h.25a.75.75 0 0 0 0-1.5h-.25v-.25Z" fill="#000"/><path fill-rule="evenodd" clip-rule="evenodd" d="M7.806 8.246a1.75 1.75 0 0 0-2.834.521l-2.093 4.668a2.75 2.75 0 0 0 .565 3.07l.051.05a2.75 2.75 0 0 0 3.07.566l4.668-2.093a1.75 1.75 0 0 0 .521-2.835l-3.948-3.947Zm-1.465 1.135a.25.25 0 0 1 .405-.075l3.948 3.948a.25.25 0 0 1-.075.405l-4.668 2.093a1.25 1.25 0 0 1-1.395-.257l-.051-.05a1.25 1.25 0 0 1-.257-1.396l2.093-4.668Z" fill="#000"/><path d="M5.75 2.5a.75.75 0 0 1 .75.75v.25h.25a.75.75 0 0 1 0 1.5h-.25v.25a.75.75 0 0 1-1.5 0v-.25h-.25a.75.75 0 0 1 0-1.5h.25v-.25a.75.75 0 0 1 .75-.75Z" fill="#000"/><path d="M16.5 13.25a.75.75 0 0 0-1.5 0v.25h-.25a.75.75 0 0 0 0 1.5h.25v.25a.75.75 0 0 0 1.5 0v-.25h.25a.75.75 0 0 0 0-1.5h-.25v-.25Z" fill="#000"/><path d="M13.53 7.53a.75.75 0 0 0-1.06-1.06l-1.5 1.5a.75.75 0 0 0 1.06 1.06l1.5-1.5Z" fill="#000"/><path d="M10.029 3.032c.396.12.62.54.5.936l-.703 2.313a.75.75 0 1 1-1.436-.437l.703-2.312a.75.75 0 0 1 .936-.5Z" fill="#000"/><path d="M16.578 11.032a.75.75 0 0 0-.413-1.442l-2.343.672a.75.75 0 1 0 .413 1.442l2.343-.672Z" fill="#000"/></svg>
